src/assets/svg/icons/fa/nuevos/classic/light/hashtag-lock classic light.svg

<svg xmlns="http://www.w3.org/2000/svg" viewBox="0 0 576 512"><!--! Font Awesome Pro 6.4.0 by @fontawesome - https://fontawesome.com License - https://fontawesome.com/license (Commercial License) Copyright 2023 Fonticons, Inc. --><path d="M195.6 32.4c8.6 2 14 10.6 12 19.2L186.3 144H313.4l23-99.6c2-8.6 10.6-14 19.2-12s14 10.6 12 19.2L346.3 144H432c8.8 0 16 7.2 16 16c0 .4 0 .8 0 1.1c-15.1 2.2-29.2 7.3-41.7 14.9H338.9L271.6 467.6c-2 8.6-10.6 14-19.2 12s-14-10.6-12-19.2L261.7 368H134.6l-23 99.6c-2 8.6-10.6 14-19.2 12s-14-10.6-12-19.2L101.7 368H16c-8.8 0-16-7.2-16-16s7.2-16 16-16h93.1L146 176H48c-8.8 0-16-7.2-16-16s7.2-16 16-16H153.4l23-99.6c2-8.6 10.6-14 19.2-12zM178.9 176L142 336H269.1L306 176H178.9zM464 224c-26.5 0-48 21.5-48 48v48h96V272c0-26.5-21.5-48-48-48zm-80 48c0-44.2 35.8-80 80-80s80 35.8 80 80v48c17.7 0 32 14.3 32 32V480c0 17.7-14.3 32-32 32H384c-17.7 0-32-14.3-32-32V352c0-17.7 14.3-32 32-32V272zm0 80V480H544V352H384z"/></svg>

<svg xmlns="http://www.w3.org/2000/svg" viewBox="0 0 576 512"><path d="M195.6 32.42C204.2 34.41 209.6 42.1 207.6 51.61L186.3 144H313.4L336.4 44.41C338.4 35.8 346.1 30.43 355.6 32.42C364.2 34.41 369.6 42.1 367.6 51.61L346.3 144H432C440.8 144 448 151.2 448 160C448 160.4 447.1 160.8 447.1 161.2C432.9 163.3 418.8 168.5 406.3 176H338.9L271.6 467.6C269.6 476.2 261 481.6 252.4 479.6C243.8 477.6 238.4 469 240.4 460.4L261.7 368H134.6L111.6 467.6C109.6 476.2 101 481.6 92.4 479.6C83.79 477.6 78.42 469 80.41 460.4L101.7 368H16C7.164 368 0 360.8 0 352C0 343.2 7.164 336 16 336H109.1L146 176H48C39.16 176 32 168.8 32 160C32 151.2 39.16 144 48 144H153.4L176.4 44.41C178.4 35.8 186.1 30.43 195.6 32.42H195.6zM178.9 176L141.1 336H269.1L306 176H178.9zM464 192C508.2 192 544 227.8 544 272V320C561.7 320 576 334.3 576 352V480C576 497.7 561.7 512 544 512H384C366.3 512 352 497.7 352 480V352C352 334.3 366.3 320 384 320V272C384 227.8 419.8 192 464 192V192zM464 224C437.5 224 416 245.5 416 272V320H512V272C512 245.5 490.5 224 464 224V224zM384 352V480H544V352H384z"/></svg>
